X:1
T:Phoenix
C:Jackie Tolliday-Bailey
R:hornpipe
M:6/4
L:1/8
K:Dmaj
fgf efe | ded c2 F | B2 c d2 e | f2 e d2 c |
fgf efe | ded c2 F | B2 c d2 e | f6 |
fgf efe | ded c2 F f | g2 e f2 g | f2 e d2 c |
fgf efe | ded c2 F | B2 c d2 e | B6 |
|:cdc F2 c | d2 c B2 A | BcB F2 B | c2 B d2 c |
cdc F2 c | d2 c B2 G | B2 c d2 c | B6 :|
